img/icons/reimb_icon.svg

<svg width="146" height="146" viewBox="0 0 146 146" fill="none" xmlns="http://www.w3.org/2000/svg">
<g opacity="0.6" filter="url(#filter0_bddi_1188_1740)">
<path d="M73 13C106.138 13 133 39.862 133 73C133 106.138 106.138 133 73 133C59.0109 133.02 45.4579 128.133 34.7021 119.188L33.2381 117.934L38.6501 106.522C46.3779 114.443 56.6052 119.45 67.6007 120.696C78.5963 121.942 89.6848 119.351 98.9893 113.361C108.294 107.371 115.243 98.3498 118.66 87.8248C122.078 77.2997 121.754 65.9171 117.743 55.6036C113.732 45.2901 106.28 36.6792 96.6501 31.2284C87.0197 25.7776 75.8017 23.8217 64.8949 25.6918C53.9881 27.5618 44.0624 33.143 36.7979 41.4906C29.5334 49.8382 25.3762 60.4394 25.0301 71.5L25.0001 73H40.0001L23.7641 107.296C16.7393 97.2406 12.9811 85.2661 13.0001 73C13.0001 39.862 39.8621 13 73 13ZM79 37V49H94V61H61.0001C60.2504 60.9986 59.5273 61.278 58.9734 61.783C58.4194 62.2881 58.0745 62.9823 58.0068 63.7289C57.9391 64.4755 58.1533 65.2204 58.6074 65.817C59.0614 66.4135 59.7224 66.8184 60.46 66.952L61.0001 67H85C88.9783 67 92.7936 68.5803 95.6066 71.3934C98.4197 74.2064 100 78.0217 100 82C100 85.9782 98.4197 89.7935 95.6066 92.6066C92.7936 95.4196 88.9783 97 85 97H79V109H67V97H52.0001V85H85C85.7497 85.0013 86.4727 84.722 87.0267 84.2169C87.5807 83.7118 87.9256 83.0176 87.9933 82.271C88.061 81.5244 87.8468 80.7795 87.3927 80.183C86.9387 79.5864 86.2777 79.1815 85.54 79.048L85 79H61.0001C57.0218 79 53.2065 77.4196 50.3935 74.6066C47.5804 71.7935 46.0001 67.9782 46.0001 64C46.0001 60.0217 47.5804 56.2064 50.3935 53.3934C53.2065 50.5803 57.0218 49 61.0001 49H67V37H79Z" fill="#FBFBFB"/>
</g>
<path d="M73 13C106.138 13 133 39.862 133 73C133 106.138 106.138 133 73 133C59.0109 133.02 45.4579 128.133 34.7021 119.188L33.2381 117.934L38.6501 106.522C46.3779 114.443 56.6052 119.45 67.6007 120.696C78.5963 121.942 89.6848 119.351 98.9893 113.361C108.294 107.371 115.243 98.3498 118.66 87.8248C122.078 77.2997 121.754 65.9171 117.743 55.6036C113.732 45.2901 106.28 36.6792 96.6501 31.2284C87.0197 25.7776 75.8017 23.8217 64.8949 25.6918C53.9881 27.5618 44.0624 33.143 36.7979 41.4906C29.5334 49.8382 25.3762 60.4394 25.0301 71.5L25.0001 73H40.0001L23.7641 107.296C16.7393 97.2406 12.9811 85.2661 13.0001 73C13.0001 39.862 39.8621 13 73 13ZM79 37V49H94V61H61.0001C60.2504 60.9986 59.5273 61.278 58.9734 61.783C58.4194 62.2881 58.0745 62.9823 58.0068 63.7289C57.9391 64.4755 58.1533 65.2204 58.6074 65.817C59.0614 66.4135 59.7224 66.8184 60.46 66.952L61.0001 67H85C88.9783 67 92.7936 68.5803 95.6066 71.3934C98.4197 74.2064 100 78.0217 100 82C100 85.9782 98.4197 89.7935 95.6066 92.6066C92.7936 95.4196 88.9783 97 85 97H79V109H67V97H52.0001V85H85C85.7497 85.0013 86.4727 84.722 87.0267 84.2169C87.5807 83.7118 87.9256 83.0176 87.9933 82.271C88.061 81.5244 87.8468 80.7795 87.3927 80.183C86.9387 79.5864 86.2777 79.1815 85.54 79.048L85 79H61.0001C57.0218 79 53.2065 77.4196 50.3935 74.6066C47.5804 71.7935 46.0001 67.9782 46.0001 64C46.0001 60.0217 47.5804 56.2064 50.3935 53.3934C53.2065 50.5803 57.0218 49 61.0001 49H67V37H79Z" fill="#FBFBFB"/>
<defs>
<filter id="filter0_bddi_1188_1740" x="0" y="0" width="146" height="146" filterUnits="userSpaceOnUse" color-interpolation-filters="sRGB">
<feFlood flood-opacity="0" result="BackgroundImageFix"/>
<feGaussianBlur in="BackgroundImage" stdDeviation="5"/>
<feComposite in2="SourceAlpha" operator="in" result="effect1_backgroundBlur_1188_1740"/>
<feColorMatrix in="SourceAlpha" type="matrix" values="0 0 0 0 0 0 0 0 0 0 0 0 0 0 0 0 0 0 127 0" result="hardAlpha"/>
<feOffset dx="3" dy="3"/>
<feGaussianBlur stdDeviation="5"/>
<feComposite in2="hardAlpha" operator="out"/>
<feColorMatrix type="matrix" values="0 0 0 0 0.611765 0 0 0 0 0.819608 0 0 0 0 0.713726 0 0 0 0.9 0"/>
<feBlend mode="normal" in2="effect1_backgroundBlur_1188_1740" result="effect2_dropShadow_1188_1740"/>
<feColorMatrix in="SourceAlpha" type="matrix" values="0 0 0 0 0 0 0 0 0 0 0 0 0 0 0 0 0 0 127 0" result="hardAlpha"/>
<feOffset dx="-3" dy="-3"/>
<feGaussianBlur stdDeviation="5"/>
<feComposite in2="hardAlpha" operator="out"/>
<feColorMatrix type="matrix" values="0 0 0 0 1 0 0 0 0 1 0 0 0 0 1 0 0 0 1 0"/>
<feBlend mode="normal" in2="effect2_dropShadow_1188_1740" result="effect3_dropShadow_1188_1740"/>
<feBlend mode="normal" in="SourceGraphic" in2="effect3_dropShadow_1188_1740" result="shape"/>
<feColorMatrix in="SourceAlpha" type="matrix" values="0 0 0 0 0 0 0 0 0 0 0 0 0 0 0 0 0 0 127 0" result="hardAlpha"/>
<feOffset dx="-3" dy="-3"/>
<feGaussianBlur stdDeviation="5"/>
<feComposite in2="hardAlpha" operator="arithmetic" k2="-1" k3="1"/>
<feColorMatrix type="matrix" values="0 0 0 0 0.611765 0 0 0 0 0.819608 0 0 0 0 0.713726 0 0 0 0.4 0"/>
<feBlend mode="normal" in2="shape" result="effect4_innerShadow_1188_1740"/>
</filter>
</defs>
</svg>

<svg width="146" height="146" fill="none" xmlns="http://www.w3.org/2000/svg"><g opacity=".6" filter="url(#filter0_bddi_1188_1740)"><path d="M73 13c33.138 0 60 26.862 60 60 0 33.138-26.862 60-60 60a59.76 59.76 0 01-38.298-13.812l-1.464-1.254 5.412-11.412a47.996 47.996 0 0060.34 6.839 47.997 47.997 0 0018.753-57.757 48.003 48.003 0 00-52.848-29.912A48 48 0 0025.03 71.5L25 73h15l-16.236 34.296A59.723 59.723 0 0113 73c0-33.138 26.862-60 60-60zm6 24v12h15v12H61a3 3 0 00-.54 5.952L61 67h24a15 15 0 110 30h-6v12H67V97H52V85h33a3 3 0 00.54-5.952L85 79H61a15 15 0 010-30h6V37h12z" fill="#FBFBFB"/></g><path d="M73 13c33.138 0 60 26.862 60 60 0 33.138-26.862 60-60 60a59.76 59.76 0 01-38.298-13.812l-1.464-1.254 5.412-11.412a47.996 47.996 0 0060.34 6.839 47.997 47.997 0 0018.753-57.757 48.003 48.003 0 00-52.848-29.912A48 48 0 0025.03 71.5L25 73h15l-16.236 34.296A59.723 59.723 0 0113 73c0-33.138 26.862-60 60-60zm6 24v12h15v12H61a3 3 0 00-.54 5.952L61 67h24a15 15 0 110 30h-6v12H67V97H52V85h33a3 3 0 00.54-5.952L85 79H61a15 15 0 010-30h6V37h12z" fill="#FBFBFB"/><defs><filter id="filter0_bddi_1188_1740" x="0" y="0" width="146" height="146" filterUnits="userSpaceOnUse" color-interpolation-filters="sRGB"><feFlood flood-opacity="0" result="BackgroundImageFix"/><feGaussianBlur in="BackgroundImage" stdDeviation="5"/><feComposite in2="SourceAlpha" operator="in" result="effect1_backgroundBlur_1188_1740"/><feColorMatrix in="SourceAlpha" values="0 0 0 0 0 0 0 0 0 0 0 0 0 0 0 0 0 0 127 0" result="hardAlpha"/><feOffset dx="3" dy="3"/><feGaussianBlur stdDeviation="5"/><feComposite in2="hardAlpha" operator="out"/><feColorMatrix values="0 0 0 0 0.611765 0 0 0 0 0.819608 0 0 0 0 0.713726 0 0 0 0.9 0"/><feBlend in2="effect1_backgroundBlur_1188_1740" result="effect2_dropShadow_1188_1740"/><feColorMatrix in="SourceAlpha" values="0 0 0 0 0 0 0 0 0 0 0 0 0 0 0 0 0 0 127 0" result="hardAlpha"/><feOffset dx="-3" dy="-3"/><feGaussianBlur stdDeviation="5"/><feComposite in2="hardAlpha" operator="out"/><feColorMatrix values="0 0 0 0 1 0 0 0 0 1 0 0 0 0 1 0 0 0 1 0"/><feBlend in2="effect2_dropShadow_1188_1740" result="effect3_dropShadow_1188_1740"/><feBlend in="SourceGraphic" in2="effect3_dropShadow_1188_1740" result="shape"/><feColorMatrix in="SourceAlpha" values="0 0 0 0 0 0 0 0 0 0 0 0 0 0 0 0 0 0 127 0" result="hardAlpha"/><feOffset dx="-3" dy="-3"/><feGaussianBlur stdDeviation="5"/><feComposite in2="hardAlpha" operator="arithmetic" k2="-1" k3="1"/><feColorMatrix values="0 0 0 0 0.611765 0 0 0 0 0.819608 0 0 0 0 0.713726 0 0 0 0.4 0"/><feBlend in2="shape" result="effect4_innerShadow_1188_1740"/></filter></defs></svg>
